image/icon/DwemerRuins_red.svg

<!--version="1.0" encoding="UTF-8"--><svg version="1.1" id="Layer_1" xmlns="http://www.w3.org/2000/svg" width="26" height="41" xml:space="preserve"><g id="PathID_103" transform="matrix(1, 0, 0, 1, 12.65, 20.1)"><path style="fill: rgb(0, 0, 0); fill-opacity: 1;" d="M8.8-14.55h3.85v6h-1v3.05L10-3.7v16.05l-10.1 7.9-9.9-7.9V-3.7l-1.65-1.8v-3.05h-1v-6h3.85q2.4-4.25 6.75-5.25v-.25L2-20.1v.3q4.4 1 6.8 5.25M4.55-16.2Q2.5-17.7 0-17.8h-.05q-2.45.1-4.5 1.6-1.3 1-2.2 2.4l-.8 1.55h-3.1v1.95h1V-6L-8-4.2v15.85l7.9 6.3 8.1-6.3V-4.2L9.65-6v-4.3h1v-1.95h-3.1l-.8-1.55q-.9-1.4-2.2-2.4M3.3-1.5v9.1h-6.65v-9.1q0-2.05 1-3.5Q-1.4-6.5 0-6.6q1.4.1 2.35 1.6.95 1.45.95 3.5"/><path style="fill: rgb(59, 129, 247); fill-opacity: 1;" d="m6.75-13.8.8 1.55h3.1v1.95h-1V-6L8-4.2v15.85l-8.1 6.3-7.9-6.3V-4.2L-9.65-6v-4.3h-1v-1.95h3.1l.8-1.55q.9-1.4 2.2-2.4 2.05-1.5 4.5-1.6H0q2.5.1 4.55 1.6 1.3 1 2.2 2.4M2.35-5Q1.4-6.5 0-6.6q-1.4.1-2.35 1.6-1 1.45-1 3.5v9.1H3.3v-9.1q0-2.05-.95-3.5"/></g></svg>

<?xml version="1.0" encoding="UTF-8"?>
<svg version="1.1" id="Layer_1" xmlns="http://www.w3.org/2000/svg" xmlns:xlink="http://www.w3.org/1999/xlink" width="26px" height="41px" xml:space="preserve">
<g id="PathID_103" transform="matrix(1, 0, 0, 1, 12.65, 20.1)">
<path style="fill:#000000;fill-opacity:1" d="M8.8 -14.55L12.65 -14.55L12.65 -8.55L11.65 -8.55L11.65 -5.5L10 -3.7L10 12.35L-0.1 20.25L-10 12.35L-10 -3.7L-11.65 -5.5L-11.65 -8.55L-12.65 -8.55L-12.65 -14.55L-8.8 -14.55Q-6.4 -18.8 -2.05 -19.8L-2.05 -20.05L2 -20.1L2 -19.8Q6.4 -18.8 8.8 -14.55M4.55 -16.2Q2.5 -17.7 0 -17.8L-0.05 -17.8Q-2.5 -17.7 -4.55 -16.2Q-5.85 -15.2 -6.75 -13.8L-7.55 -12.25L-10.65 -12.25L-10.65 -10.3L-9.65 -10.3L-9.65 -6L-8 -4.2L-8 11.65L-0.1 17.95L8 11.65L8 -4.2L9.65 -6L9.65 -10.3L10.65 -10.3L10.65 -12.25L7.55 -12.25L6.75 -13.8Q5.85 -15.2 4.55 -16.2M3.3 -1.5L3.3 7.6L-3.35 7.6L-3.35 -1.5Q-3.35 -3.55 -2.35 -5Q-1.4 -6.5 0 -6.6Q1.4 -6.5 2.35 -5Q3.3 -3.55 3.3 -1.5"/>
<path style="fill:#3b81f7;fill-opacity:1" d="M6.75 -13.8L7.55 -12.25L10.65 -12.25L10.65 -10.3L9.65 -10.3L9.65 -6L8 -4.2L8 11.65L-0.1 17.95L-8 11.65L-8 -4.2L-9.65 -6L-9.65 -10.3L-10.65 -10.3L-10.65 -12.25L-7.55 -12.25L-6.75 -13.8Q-5.85 -15.2 -4.55 -16.2Q-2.5 -17.7 -0.05 -17.8L0 -17.8Q2.5 -17.7 4.55 -16.2Q5.85 -15.2 6.75 -13.8M2.35 -5Q1.4 -6.5 0 -6.6Q-1.4 -6.5 -2.35 -5Q-3.35 -3.55 -3.35 -1.5L-3.35 7.6L3.3 7.6L3.3 -1.5Q3.3 -3.55 2.35 -5"/>
</g>
</svg>
